X:1
T:Title
%%score { ( 1 3 ) | ( 2 4 ) }
L:1/8
Q:1/4=112
M:4/4
K:Eb
V:1 treble nm="Grand Piano"
V:3 treble 
V:2 bass 
V:4 bass 
V:1
 e4 d2 c2 | B6 G2 | E3 [CEF] [B,EG]2 [A,EA]2 | [B,EG]4 [B,DF]4 | [B,EB]4 [B,DG]2 [A,DF]2 | %5
w: G.~A.~Macfarren * *|||||
 [G,E]4 [CEc]4 | [B,DF]8 | [B,F]4 [B,EG]2 [B,DA]2 | [B,B]6 [EGB]2 | [EGB]3 [EAc] [FAd]2 [EBe]2 | %10
w: |||||
 [EBd]4 [EAc]4 | [B,FB]4 [B,EG]2 [B,E]2 | [EG]4 [DF]4 | [G,E]8 |] %14
w: ||||
V:2
 [E,E]4 [D,D]2 [C,C]2 | [B,,B,]6 [E,B,E]2 | C,3 A,, B,,2 C,2 | B,,4 B,,4 | G,,4 B,,2 B,,2 | %5
 C,4 A,,4 | B,,8 | D,4 E,2 F,2 | z4 E2 E,2 | E,3 A, F,2 G,2 | A,4 A,4 | D,4 E,2 G,,2 | %12
 B,,4 z2 A,2 | E,8 |] %14
V:3
 x8 | x8 | x8 | x8 | x8 | x8 | x8 | x8 | D4 z4 | x8 | x8 | x8 | B,6 z2 | x8 |] %14
V:4
 x8 | x8 | x8 | x8 | x8 | x8 | x8 | x8 | G,6 z2 | x8 | x8 | x8 | z4 B,,4 | x8 |] %14

